proprietary/assets/icons/computer-en-internet/website.svg

<svg height="64" viewBox="0 0 64 64" width="64" xmlns="http://www.w3.org/2000/svg"><path d="m0 0h64v64h-64z" fill="none"/><path d="m35.5 40.3c.5-.1.6-.8.2-1.1l-8-5.3c-.4-.2-.8.1-.7.5l2.2 9c.1.5.7.6 1.1.2l1.1-1.4 2.8 3.7 2.2-1.7-2.7-3.5zm-16-6.3 1.2-3.8 1 3.8h2.3l1.8-7h-1.8l-1 5.6h-.1l-1.5-5.6h-1.7l.4 1.3-1.4 4.3h-.1l-1.1-5.6h-2l1.8 7zm34.5-22h-44c-1.7 0-3 1.3-3 3v34c0 1.7 1.3 3 3 3h44c1.7 0 3-1.3 3-3v-34c0-1.7-1.3-3-3-3zm-37.5 2c.8 0 1.5.7 1.5 1.5s-.7 1.5-1.5 1.5-1.5-.7-1.5-1.5.7-1.5 1.5-1.5zm-5 0c.8 0 1.5.7 1.5 1.5s-.7 1.5-1.5 1.5-1.5-.7-1.5-1.5.7-1.5 1.5-1.5zm42.5 35h-44v-30h44zm-23.1-15.4 1.1-3.5 1 3.8h2.3l1.8-7h-1.8l-1.1 5.6h-.1l-1.4-5.5h-1.7l.4 1.3-1.4 4.3h-.1l-1.1-5.6h-2l1.2 4.7zm11.2.4 1.2-3.8 1 3.8h2.3l1.8-7h-1.8l-1.1 5.6h-.1l-1.4-5.6h-1.7l.4 1.3-1.4 4.3h-.1l-1.1-5.6h-2l1.8 7z"/></svg>

<?xml version="1.0" encoding="utf-8"?>
<!-- Generator: Adobe Illustrator 21.0.2, SVG Export Plug-In . SVG Version: 6.00 Build 0)  -->
<svg version="1.2" baseProfile="tiny" xmlns="http://www.w3.org/2000/svg" xmlns:xlink="http://www.w3.org/1999/xlink" x="0px"
	 y="0px" width="64px" height="64px" viewBox="0 0 64 64" xml:space="preserve">
<g id="Box">
	<rect fill="none" width="64" height="64"/>
</g>
<g id="Icon">
	<g>
		<path d="M35.5,40.3c0.5-0.1,0.6-0.8,0.2-1.1l-8-5.3c-0.4-0.2-0.8,0.1-0.7,0.5l2.2,9c0.1,0.5,0.7,0.6,1.1,0.2l1.1-1.4l2.8,3.7
			l2.2-1.7l-2.7-3.5L35.5,40.3z M19.5,34l1.2-3.8h0l1,3.8h2.3l1.8-7h-1.8L23,32.6h-0.1L21.4,27h-1.7l0.4,1.3l-1.4,4.3h-0.1L17.5,27
			h-2l1.8,7H19.5z M54,12H10c-1.7,0-3,1.3-3,3v34c0,1.7,1.3,3,3,3h44c1.7,0,3-1.3,3-3V15C57,13.3,55.7,12,54,12z M16.5,14
			c0.8,0,1.5,0.7,1.5,1.5S17.3,17,16.5,17S15,16.3,15,15.5S15.7,14,16.5,14z M11.5,14c0.8,0,1.5,0.7,1.5,1.5S12.3,17,11.5,17
			S10,16.3,10,15.5S10.7,14,11.5,14z M54,49H10V19h44V49z M30.9,33.6l1.1-3.5h0l1,3.8h2.3l1.8-7h-1.8l-1.1,5.6h-0.1L32.7,27H31
			l0.4,1.3l-1.4,4.3h-0.1L28.8,27h-2l1.2,4.7L30.9,33.6z M42.1,34l1.2-3.8h0l1,3.8h2.3l1.8-7h-1.8l-1.1,5.6h-0.1L44,27h-1.7l0.4,1.3
			l-1.4,4.3h-0.1L40.1,27h-2l1.8,7H42.1z"/>
	</g>
</g>
</svg>
